!!!OTL: Treue Liebe (85), S. 229
!!!id: T0243
**kern
*clefG2
*k[b-e-]
*B-:
{8b-
=1
8b-
4dd
8b-
=2yy
8g
=3
8f
8b-
4b-}
=4
{4cc
8b-
8cc
=5
8dd
8b-
4f}
=6
{4f
8g
8f
=7
8f
8ee-
4dd}
=8
{4cc
8g
8a
=9
4b-}
4r
==
*-
!!!minrhy: 8
!!!meters: 2/4 ]  ZZ[4
!!!cut1: Treue Liebe (85), S. 229
!!!cut2: Melodie II
!!!reg: Luxemburg
!!!trd: Singendes Volk, Esch-Alzette 1937 posth.
!!!rhy1:   X_XX  XXX_
!!!rhy2: X_XX  XXX_
!!!key: T0243  08 Bb 2/4 ]  ZZ[4
!!!mod: HEPTATONIK IONISCH]  AMBITUS[7b
!!!kad: 1-531
!!!akz: 3-5_23_-5-5_21_
!!!fot: 'a__b__c__d__
!!!for: 'a__a__a__aw_
!!!fok: 'Vd_\__/__Vd_
!! PHRAS[VOLLTAKTIG]
!!!fkt: Liebeslieder
!!!bem: Heffingen, fff Susanna Berchem-Petry, 1906
!! THILL, Mathias:
!! PR[38] 2K[0] 2G[2] 3K[8] 3G[6] 4A[4] 4Ü[0] 5A[0] 6K[2] 6G[0]
!! 7K[2] 7G[0] 8A[0] MEHR[0] SI[25] ABS[48] SR[2] SP[23]
!! ST[12] 2k[8] 2g[15] 3k[6] 3g[4] 4d[2] 4ü[0] 5d[0] 6k[0] 6g[2]
!! 7k[0] 7g[0] 8d[0] mehr[0] si[38] dm[-13] sr[23] sp[15]
!! 1F[24] 2F[71] 3F[6] 4F[0] LF[0] 2P[0] 3P[0] 4P[0] TRI[0] DF[3] AB[51]
!! TF[0] U3K[0] U3[0] U4[0] U4Ü[0] U5[14] U6K[0] U6[14] U7K[0] U7[2]
!! N1[24] N2K[0] N2[16] N3K[0] N3[20] N4[8] N4Ü[0] N5[0] N6K[0] N6[0]
!!!n7k: 0] N7[0] O1[0] O2K[0] O2[0] O3K[0] O3[0] HÖ[0
